src/assets/effect.svg

<svg width="40" height="41" viewBox="0 0 40 41" fill="none" xmlns="http://www.w3.org/2000/svg">
<mask id="mask0_1744_167" style="mask-type:alpha" maskUnits="userSpaceOnUse" x="0" y="0" width="40" height="41">
<rect y="0.25" width="40" height="40" fill="#D9D9D9"/>
</mask>
<g mask="url(#mask0_1744_167)">
<path d="M20.0067 24.0104C21.0542 24.0104 21.9417 23.6445 22.6692 22.9129C23.3967 22.1809 23.7605 21.2911 23.7605 20.2433C23.7605 19.1958 23.3947 18.3083 22.663 17.5808C21.9311 16.8533 21.0412 16.4895 19.9934 16.4895C18.9459 16.4895 18.0584 16.8554 17.3309 17.587C16.6034 18.319 16.2397 19.2088 16.2397 20.2566C16.2397 21.3041 16.6055 22.1916 17.3372 22.9191C18.0691 23.6466 18.959 24.0104 20.0067 24.0104ZM20.0101 36.0833C17.8181 36.0833 15.7627 35.6677 13.8438 34.8366C11.9247 34.0055 10.2477 32.873 8.813 31.4391C7.37855 30.005 6.2455 28.3282 5.41383 26.4087C4.58244 24.489 4.16675 22.4323 4.16675 20.2387C4.16675 18.0523 4.5823 15.9972 5.41341 14.0733C6.24453 12.1491 7.37703 10.4744 8.81091 9.04913C10.2451 7.62385 11.9219 6.49538 13.8413 5.66371C15.7611 4.83232 17.8177 4.41663 20.0113 4.41663C22.1977 4.41663 24.2529 4.83218 26.1767 5.66329C28.1009 6.4944 29.7756 7.62232 31.2009 9.04704C32.6262 10.4718 33.7547 12.1472 34.5863 14.0733C35.4177 15.9994 35.8334 18.055 35.8334 20.24C35.8334 22.4319 35.4179 24.4873 34.5868 26.4062C33.7556 28.3254 32.6277 30.0005 31.203 31.4316C29.7783 32.863 28.1029 33.9961 26.1767 34.8308C24.2506 35.6658 22.1951 36.0833 20.0101 36.0833ZM20.0138 33.9891C23.8322 33.9891 27.0744 32.6533 29.7405 29.9816C32.4063 27.31 33.7392 24.0615 33.7392 20.2362C33.7392 16.4179 32.408 13.1757 29.7455 10.5095C27.083 7.84371 23.8345 6.51079 20.0001 6.51079C16.184 6.51079 12.9401 7.84204 10.2684 10.5045C7.59675 13.167 6.26091 16.4155 6.26091 20.25C6.26091 24.0661 7.59675 27.31 10.2684 29.9816C12.9401 32.6533 16.1886 33.9891 20.0138 33.9891Z" fill="white"/>
</g>
</svg>

<svg width="40" height="41" viewBox="0 0 40 41" fill="none" xmlns="http://www.w3.org/2000/svg"><mask id="mask0_1744_167" style="mask-type:alpha" maskUnits="userSpaceOnUse" x="0" y="0" width="40" height="41"><path fill="#d9d9d9" d="M0 .25h40v40H0z"/></mask><g mask="url(#mask0_1744_167)"><path d="M20.007 24.01q1.571 0 2.662-1.097 1.092-1.098 1.092-2.67t-1.098-2.662q-1.098-1.092-2.67-1.091-1.571 0-2.662 1.097-1.092 1.098-1.091 2.67 0 1.571 1.097 2.662 1.098 1.092 2.67 1.091m.003 12.073q-3.288 0-6.166-1.246a16.1 16.1 0 0 1-5.031-3.398 16.1 16.1 0 0 1-3.4-5.03q-1.245-2.88-1.246-6.17 0-3.28 1.246-6.166Q6.66 11.187 8.811 9.05a16.2 16.2 0 0 1 5.03-3.385q2.88-1.248 6.17-1.247 3.28 0 6.166 1.246T31.2 9.047t3.385 5.026 1.247 6.167q0 3.288-1.246 6.166a16.1 16.1 0 0 1-3.384 5.026q-2.137 2.146-5.026 3.399-2.89 1.252-6.167 1.252m.004-2.094q5.727 0 9.727-4.007 3.998-4.008 3.998-9.746 0-5.727-3.993-9.727Q25.752 6.511 20 6.511q-5.724 0-9.732 3.994-4.007 3.993-4.007 9.745 0 5.724 4.007 9.732 4.008 4.007 9.746 4.007" fill="#fff"/></g></svg>
